**kern	**silbe	**harmony	**chordsym	**phrase	**timestamp	**leadinstrument
*ICvox	*	*M4/4	*M4/4	*	*	*
*	*	*D-:	*D-:	*	*	*
=1	=1	=1	=1	=1	=1	=1
*b-:	*	*	*	*	*	*
*M4/4	*	*	*	*	*	*
*clefC3	*	*	*	*	*	*
1r	.	1r;	r	.	0	r
=2	=2	=2	=2	=2	=2	=2
*	*	*>A_intro	*>A_intro	*>A_intro	*>A_intro	*>A_intro
1r	.	2G-M	G-:maj (G- B- D-)	newline	0.232	piano
.	.	2FM	F:maj (F A C)	.	.	piano
=3	=3	=3	=3	=3	=3	=3
1r	.	4B-m	B-:min (B- D- F)	.	.	piano
.	.	4A-M	A-:maj (C A- E-)	.	.	piano
.	.	4A-Mm	A-:7 (D- A- C E- G-)	.	.	piano
.	.	4D-MM	D-:maj7 (D- F A- C)	.	.	piano
=4	=4	=4	=4	=4	=4	=4
1r	.	2G-M	G-:maj (G- B- D-)	newline	7.725	piano
.	.	2FM	F:maj (F A C)	.	.	piano
=5	=5	=5	=5	=5	=5	=5
1r	.	4B-m	B-:min (B- D- F)	.	.	piano
.	.	2.A-M	A-:maj (C A- E-)	.	.	piano
=6	=6	=6	=6	=6	=6	=6
1r	.	2G-M	G-:maj (G- B- D-)	newline	15.214	piano
.	.	2FM	F:maj (F A C)	.	.	piano
=7	=7	=7	=7	=7	=7	=7
1r	.	4B-m	B-:min (B- D- F)	.	.	piano
.	.	4A-M	A-:maj (C A- E-)	.	.	piano
.	.	2D-MM	D-:maj7 (D- F A- C)	.	.	piano
=8	=8	=8	=8	=8	=8	=8
1r	.	2G-M	G-:maj (G- B- D-)	newline	22.744	piano
.	.	2FM	F:maj (F A C)	.	.	piano
=9	=9	=9	=9	=9	=9	=9
8.r	.	1B-M	B-:maj (B- D F)	.	.	piano
16G-	I	.	.	.	.	.
16B-	got	.	.	.	.	.
8d-	your	.	.	.	.	.
16d-	let-	.	.	.	.	.
16c	-ter,	.	.	.	.	.
8.r	_	.	.	.	.	.
16c	from	.	.	.	.	.
16c	the	.	.	.	.	.
8d-	post	.	.	.	.	.
=10	=10	=10	=10	=10	=10	=10
*	*	*>A_verse	*>A_verse	*>A_verse	*>A_verse	*>A_verse
8e-q	_	.	.	.	.	.
8f	man	2G-M	G-:maj (G- B- D-)	newline	30.12	voice
16e-	just	.	.	.	.	.
16d-	the	.	.	.	.	.
16e-	o-	.	.	.	.	.
16d-	-ther	.	.	.	.	.
16d-q	_	.	.	.	.	.
16e-	day	.	.	.	.	.
[16d-	_	.	.	.	.	.
2d-]	_	2FM	F:maj (F A C)	.	.	voice
=11	=11	=11	=11	=11	=11	=11
4r	.	4B-m	B-:min (B- D- F)	.	.	voice
16B-	So	4A-M	A-:maj (C A- E-)	.	.	voice
16d-	I	.	.	.	.	.
16d-	de	.	.	.	.	.
16cq	_	.	.	.	.	.
16d-	ci-	.	.	.	.	.
16c	-ded	4A-Mm	A-:7 (D- A- C E- G-)	.	.	voice
16c	to	.	.	.	.	.
8c	write	.	.	.	.	.
16c	you	4D-MM	D-:maj7 (D- F A- C)	.	.	voice
8F	this	.	.	.	.	.
[16c	song	.	.	.	.	.
=12	=12	=12	=12	=12	=12	=12
16c]	_	2G-M	G-:maj (G- B- D-)	newline	37.655	voice
32d-	_	.	.	.	.	.
32c	_	.	.	.	.	.
[8B-	_	.	.	.	.	.
2B-]	_	.	.	.	.	.
.	.	2FM	F:maj (F A C)	.	.	voice
4r	.	.	.	.	.	.
=13	=13	=13	=13	=13	=13	=13
8.r	.	4B-m	B-:min (B- D- F)	.	.	voice
16D-	And	.	.	.	.	.
16d-	just	2.A-M	A-:maj (C A- E-)	.	.	voice
16d-	to	.	.	.	.	.
16d-	let	.	.	.	.	.
16d-q	_	.	.	.	.	.
[16e-	you	.	.	.	.	.
16e-]	_	.	.	.	.	.
[8.e-	know,	.	.	.	.	.
16e-]	_	.	.	.	.	.
8r	_	.	.	.	.	.
16d-	ex-	.	.	.	.	.
=14	=14	=14	=14	=14	=14	=14
8e-q	_	.	.	.	.	.
8f	-act-	2G-M	G-:maj (G- B- D-)	newline	45.124	voice
16e-	-ly	.	.	.	.	.
16d-	the	.	.	.	.	.
16e-	way	.	.	.	.	.
16d-	I	.	.	.	.	.
16d-q	_	.	.	.	.	.
16e-	feel,	.	.	.	.	.
[16d-	_	.	.	.	.	.
2d-]	_	2FM	F:maj (F A C)	.	.	voice
=15	=15	=15	=15	=15	=15	=15
8.r	_	4B-m	B-:min (B- D- F)	.	.	voice
16E-	to	.	.	.	.	.
16d-	let	4A-M	A-:maj (C A- E-)	.	.	voice
16d-	you	.	.	.	.	.
32d-	know	.	.	.	.	.
[16.c	_	.	.	.	.	.
8c]	_	2D-MM	D-:maj7 (D- F A- C)	.	.	voice
16F	my	.	.	.	.	.
32d-	love's	.	.	.	.	.
[32c	_	.	.	.	.	.
8c]	_	.	.	.	.	.
16c	for	.	.	.	.	.
16B-q	_	.	.	.	.	.
[16c	real	.	.	.	.	.
=16	=16	=16	=16	=16	=16	=16
16c]	_	2G-M	G-:maj (G- B- D-)	newline	52.593	voice
32d-	_	.	.	.	.	.
32c	_	.	.	.	.	.
[8B-	_	.	.	.	.	.
4.B-]	_	.	.	.	.	.
.	.	2FM	F:maj (F A C)	.	.	voice
8fq	_	.	.	.	.	.
8g-	Be	.	.	.	.	.
8e-q	_	.	.	.	.	.
8f	cause	.	.	.	.	.
16e-	I	.	.	.	.	.
16d-	_	.	.	.	.	.
=17	=17	=17	=17	=17	=17	=17
4.d-	love	1B-M	B-:maj (B- D F)	.	.	voice
16e-	_	.	.	.	.	.
16d-q	_	.	.	.	.	.
[16e-	you,	.	.	.	.	.
4e-_	_	.	.	.	.	.
16e-]	_	.	.	.	.	.
8r	_	.	.	.	.	.
16G-	and	.	.	.	.	.
=18	=18	=18	=18	=18	=18	=18
*	*	*>B_chorus	*>B_chorus	*>B_chorus	*>B_chorus	*>B_chorus
8g-	I'll	2E-mm	E-:min7 (E- G- B- D-)	newline	60.112	voice
16g-	do	.	.	.	.	.
[16g-	a	.	.	.	.	.
8g-]	_	.	.	.	.	.
16g-	ny-	.	.	.	.	.
16f	-thing	.	.	.	.	.
32e-	_	2A-M	A-:maj (A- C E-)	.	.	voice
[16.d-	_	.	.	.	.	.
8d-_	_	.	.	.	.	.
4d-]	_	.	.	.	.	.
=19	=19	=19	=19	=19	=19	=19
8.r	.	1D-M	D-:maj (D- F A-)	.	.	voice
16D-	I'll	.	.	.	.	.
16d-	give	.	.	.	.	.
16d-	you	.	.	.	.	.
16d-	my	.	.	.	.	.
[16c	heart,	.	.	.	.	.
4c]	_	.	.	.	.	.
16r	_	.	.	.	.	.
16c	my	.	.	.	.	.
8d-q	_	.	.	.	.	.
8e-	ev	.	.	.	.	.
=20	=20	=20	=20	=20	=20	=20
8d-q	_	.	.	.	.	.
8e-	'ry-	2E-mm	E-:min7 (E- G- B- D-)	.	.	voice
32e-	-thing	.	.	.	.	.
[16.d-	_	.	.	.	.	.
4d-]	_	.	.	.	.	.
8r	.	2A-M	A-:maj (A- C E-)	.	.	voice
8e-q	_	.	.	.	.	.
8f	Be	.	.	.	.	.
8e-q	_	.	.	.	.	.
8f	cause	.	.	.	.	.
16e-	I	.	.	.	.	.
16d-	_	.	.	.	.	.
=21	=21	=21	=21	=21	=21	=21
4.d-	love	2B-m	B-:min (B- D- F)	.	.	voice
16e-	_	.	.	.	.	.
16d-q	_	.	.	.	.	.
[16e-	you,	.	.	.	.	.
4e-_	_	2A-M	A-:maj (A- C E-)	.	.	voice
16e-]	_	.	.	.	.	.
8r	_	.	.	.	.	.
16G-	I'll	.	.	.	.	.
=22	=22	=22	=22	=22	=22	=22
8g-	be	2E-mm	E-:min7 (E- G- B- D-)	newline	75.002	voice
16g-	right	.	.	.	.	.
[16g-	by	.	.	.	.	.
8g-]	_	.	.	.	.	.
16g-	your	.	.	.	.	.
16e-q	_	.	.	.	.	.
16f	side	.	.	.	.	.
16e-	_	2A-M	A-:maj (A- C E-)	.	.	voice
[16d-	_	.	.	.	.	.
4d-]	_	.	.	.	.	.
8r	.	.	.	.	.	.
=23	=23	=23	=23	=23	=23	=23
8.r	.	1D-M	D-:maj (D- F A-)	.	.	voice
16E-	To	.	.	.	.	.
16d-	be	.	.	.	.	.
16d-	your	.	.	.	.	.
16cq	_	.	.	.	.	.
32d-	light,	.	.	.	.	.
[16.c	_	.	.	.	.	.
8c]	_	.	.	.	.	.
16F	to	.	.	.	.	.
32d-	be	.	.	.	.	.
[32c	_	.	.	.	.	.
8c]	_	.	.	.	.	.
16c	your	.	.	.	.	.
16B-q	_	.	.	.	.	.
[16c	guide	.	.	.	.	.
=24	=24	=24	=24	=24	=24	=24
16c]	_	2E-mm	E-:min7 (E- G- B- D-)	.	.	voice
32d-	_	.	.	.	.	.
32c	_	.	.	.	.	.
[8B-	_	.	.	.	.	.
2B-]	_	.	.	.	.	.
.	.	2A-Mm	A-:7 (A- C E- G-)	.	.	voice
4r	.	.	.	.	.	.
=25	=25	=25	=25	=25	=25	=25
8.r	.	1B-M	B-:maj (B- D F)	.	.	voice
16D-	If	.	.	.	.	.
16B-	you	.	.	.	.	.
8d-	should	.	.	.	.	.
[16d-	fear	.	.	.	.	.
16d-]	_	.	.	.	.	.
4r	.	.	.	.	.	.
8r	.	.	.	.	.	.
8B-	that	.	.	.	.	.
=25	=25	=25	=25	=25	=25	=25
*	*	*>A_verse	*>A_verse	*>A_verse	*>A_verse	*>A_verse
.	.	2G-M	G-:maj (G- B- D-)	newline	90.005	voice
=26	=26	=26	=26	=26	=26	=26
8f	I	.	.	.	.	.
16e-	don-	.	.	.	.	.
16d-	-tr-	.	.	.	.	.
16e-	-real-	.	.	.	.	.
16d-	-ly	.	.	.	.	.
16d-q	_	.	.	.	.	.
16e-	care,	.	.	.	.	.
[16d-	_	2FM	F:maj (F A C)	.	.	voice
2d-]	_	.	.	.	.	.
=26	=26	=26	=26	=26	=26	=26
.	.	4B-m	B-:min (B- D- F)	.	.	voice
=27	=27	=27	=27	=27	=27	=27
8.r	_	.	.	.	.	.
16D-	and	4A-M	A-:maj (C A- E-)	.	.	voice
16d-	that	.	.	.	.	.
8d-	you're	.	.	.	.	.
[16c	star	4A-Mm	A-:7 (D- A- C E- G-)	.	.	voice
16c]	_	.	.	.	.	.
8c	ting	.	.	.	.	.
[16B-	to	4D-MM	D-:maj7 (D- F A- C)	.	.	voice
16B-]	_	.	.	.	.	.
8B-	lose	.	.	.	.	.
=27	=27	=27	=27	=27	=27	=27
16E-q	_	.	.	.	.	.
[16F	ground	2G-M	G-:maj (G- B- D-)	newline	97.499	voice
=28	=28	=28	=28	=28	=28	=28
2F]	_	.	.	.	.	.
.	.	2FM	F:maj (F A C)	.	.	voice
2r	...	.	.	.	.	.
=28	=28	=28	=28	=28	=28	=28
.	.	4B-m	B-:min (B- D- F)	.	.	voice
=29	=29	=29	=29	=29	=29	=29
8.r	.	.	.	.	.	.
16D-	just	2.A-M	A-:maj (C A- E-)	.	.	voice
16B-	let	.	.	.	.	.
16d-	me	.	.	.	.	.
16d-	re-	.	.	.	.	.
16B-	-as-	.	.	.	.	.
8e-	-sure	.	.	.	.	.
8d-q	_	.	.	.	.	.
[8e-	you,	.	.	.	.	.
8e-]	_	.	.	.	.	.
16r	_	.	.	.	.	.
=29	=29	=29	=29	=29	=29	=29
16d-	that	2G-M	G-:maj (G- B- D-)	newline	104.937	voice
=30	=30	=30	=30	=30	=30	=30
8f	you	.	.	.	.	.
16e-	can	.	.	.	.	.
16d-	_	.	.	.	.	.
16e-	count	.	.	.	.	.
16d-	on	.	.	.	.	.
16d-q	_	.	.	.	.	.
16e-	me	.	.	.	.	.
[16d-	_	2FM	F:maj (F A C)	.	.	voice
2d-]	_	.	.	.	.	.
=30	=30	=30	=30	=30	=30	=30
.	.	4B-m	B-:min (B- D- F)	.	.	voice
=31	=31	=31	=31	=31	=31	=31
8.r	.	.	.	.	.	.
16D-	And	4A-M	A-:maj (C A- E-)	.	.	voice
16d-	that	.	.	.	.	.
8d-	I'll	.	.	.	.	.
8cq	_	.	.	.	.	.
[16d-	al	2D-MM	D-:maj7 (D- F A- C)	.	.	voice
16d-]	_	.	.	.	.	.
8.d-	ways	.	.	.	.	.
16r	.	.	.	.	.	.
16c	be	.	.	.	.	.
16F	a-	.	.	.	.	.
=31	=31	=31	=31	=31	=31	=31
[16c	-round	2G-M	G-:maj (G- B- D-)	newline	112.4	voice
=32	=32	=32	=32	=32	=32	=32
16c]	_	.	.	.	.	.
32d-	_	.	.	.	.	.
32c	_	.	.	.	.	.
[8B-	_	.	.	.	.	.
4B-_	_	.	.	.	.	.
.	.	2FM	F:maj (F A C)	.	.	voice
8B-]	_	.	.	.	.	.
8fq	_	.	.	.	.	.
8g-	Be	.	.	.	.	.
8e-q	_	.	.	.	.	.
8f	cause	.	.	.	.	.
16e-	I	.	.	.	.	.
=32	=32	=32	=32	=32	=32	=32
16d-	_	1B-M	B-:maj (B- D F)	.	.	voice
=33	=33	=33	=33	=33	=33	=33
4.d-	love	.	.	.	.	.
16e-	_	.	.	.	.	.
16d-q	_	.	.	.	.	.
[16e-	you,	.	.	.	.	.
4e-_	_	.	.	.	.	.
16e-]	_	.	.	.	.	.
8r	_	.	.	.	.	.
=33	=33	=33	=33	=33	=33	=33
*	*	*>B_chorus	*>B_chorus	*>B_chorus	*>B_chorus	*>B_chorus
16A-	my	2E-mm	E-:min7 (E- G- B- D-)	newline	119.929	voice
=34	=34	=34	=34	=34	=34	=34
8g-	heart's	.	.	.	.	.
16g-	an	.	.	.	.	.
[16g-	o	.	.	.	.	.
8g-]	_	.	.	.	.	.
16g-	pen	.	.	.	.	.
16f	door!	2A-M	A-:maj (A- C E-)	.	.	voice
32e-	_	.	.	.	.	.
[16.d-	_	.	.	.	.	.
8d-_	_	.	.	.	.	.
4d-]	_	.	.	.	.	.
=34	=34	=34	=34	=34	=34	=34
.	.	1D-M	D-:maj (D- F A-)	.	.	voice
=35	=35	=35	=35	=35	=35	=35
8r	.	.	.	.	.	.
8cq	_	.	.	.	.	.
8d-	Girl,	.	.	.	.	.
8cq	_	.	.	.	.	.
8d-	won't	.	.	.	.	.
16d-	you	.	.	.	.	.
[16c	please	.	.	.	.	.
4c]	_	.	.	.	.	.
12r	.	.	.	.	.	.
8d-q	_	.	.	.	.	.
12e-	come	.	.	.	.	.
8e-q	_	.	.	.	.	.
[12f	on	.	.	.	.	.
=35	=35	=35	=35	=35	=35	=35
.	.	2E-mm	E-:min7 (E- G- B- D-)	.	.	voice
=36	=36	=36	=36	=36	=36	=36
8d-q	_	.	.	.	.	.
16e-	_	.	.	.	.	.
32e-	in?	.	.	.	.	.
[16.d-	_	.	.	.	.	.
16d-_	_	.	.	.	.	.
4d-]	_	.	.	.	.	.
.	.	2A-M	A-:maj (A- C E-)	.	.	voice
8r	_	.	.	.	.	.
8e-q	_	.	.	.	.	.
8f	Be	.	.	.	.	.
8e-q	_	.	.	.	.	.
8f	cause	.	.	.	.	.
16e-	I	.	.	.	.	.
=36	=36	=36	=36	=36	=36	=36
16d-	_	2B-m	B-:min (B- D- F)	.	.	voice
=37	=37	=37	=37	=37	=37	=37
4.d-	love	.	.	.	.	.
16e-	_	.	.	.	.	.
16d-q	_	.	.	.	.	.
[16e-	you	2A-M	A-:maj (A- C E-)	.	.	voice
4e-]	_	.	.	.	.	.
8.r	.	.	.	.	.	.
=37	=37	=37	=37	=37	=37	=37
16G-	I'll	2E-mm	E-:min7 (E- G- B- D-)	newline	134.841	voice
=38	=38	=38	=38	=38	=38	=38
8g-	be	.	.	.	.	.
16g-	right	.	.	.	.	.
16g-q	_	.	.	.	.	.
[16a-	by	.	.	.	.	.
8g-	_	.	.	.	.	.
16g-	your	.	.	.	.	.
16e-q	_	.	.	.	.	.
16f	side	2A-M	A-:maj (A- C E-)	.	.	voice
16e-	_	.	.	.	.	.
[16d-	_	.	.	.	.	.
4d-]	_	.	.	.	.	.
8r	.	.	.	.	.	.
=38	=38	=38	=38	=38	=38	=38
.	.	1D-M	D-:maj (D- F A-)	.	.	voice
=39	=39	=39	=39	=39	=39	=39
8.r	.	.	.	.	.	.
16E-	To	.	.	.	.	.
8d-	be	.	.	.	.	.
16d-	your	.	.	.	.	.
32c	light,	.	.	.	.	.
32d-	_	.	.	.	.	.
8c	_	.	.	.	.	.
16F	to	.	.	.	.	.
32d-	be	.	.	.	.	.
[32c	_	.	.	.	.	.
8c]	_	.	.	.	.	.
16c	your	.	.	.	.	.
=39	=39	=39	=39	=39	=39	=39
16B-q	_	.	.	.	.	.
[16c	guide	2E-mm	E-:min7 (E- G- B- D-)	.	.	voice
=40	=40	=40	=40	=40	=40	=40
16c]	_	.	.	.	.	.
32d-	_	.	.	.	.	.
32c	_	.	.	.	.	.
[8B-	_	.	.	.	.	.
2B-]	_	.	.	.	.	.
.	.	2A-Mm	A-:7 (A- C E- G-)	.	.	voice
4r	.	.	.	.	.	.
=40	=40	=40	=40	=40	=40	=40
.	.	1B-M	B-:maj (B- D F)	.	.	voice
=41	=41	=41	=41	=41	=41	=41
1r	.	.	.	.	.	.
=41	=41	=41	=41	=41	=41	=41
*	*	*>A_solo	*>A_solo	*>A_solo	*>A_solo	*>A_solo
.	.	2G-M	G-:maj (G- B- D-)	newline	149.853	synthesizer
=42	=42	=42	=42	=42	=42	=42
1r	.	.	.	.	.	.
.	.	2FM	F:maj (F A C)	.	.	synthesizer
=42	=42	=42	=42	=42	=42	=42
.	.	4B-m	B-:min (B- D- F)	.	.	synthesizer
=43	=43	=43	=43	=43	=43	=43
1r	.	.	.	.	.	.
.	.	4A-M	A-:maj (C A- E-)	.	.	synthesizer
.	.	4A-Mm	A-:7 (D- A- C E- G-)	.	.	synthesizer
.	.	4D-MM	D-:maj7 (D- F A- C)	.	.	synthesizer
=43	=43	=43	=43	=43	=43	=43
.	.	2G-M	G-:maj (G- B- D-)	newline	157.307	synthesizer
=44	=44	=44	=44	=44	=44	=44
1r	.	.	.	.	.	.
.	.	2FM	F:maj (F A C)	.	.	synthesizer
=44	=44	=44	=44	=44	=44	=44
.	.	4B-m	B-:min (B- D- F)	.	.	synthesizer
=45	=45	=45	=45	=45	=45	=45
1r	.	.	.	.	.	.
.	.	2.A-M	A-:maj (C A- E-)	.	.	synthesizer
=45	=45	=45	=45	=45	=45	=45
.	.	2G-M	G-:maj (G- B- D-)	newline	164.796	synthesizer
=46	=46	=46	=46	=46	=46	=46
1r	.	.	.	.	.	.
.	.	2FM	F:maj (F A C)	.	.	synthesizer
=46	=46	=46	=46	=46	=46	=46
.	.	4B-m	B-:min (B- D- F)	.	.	synthesizer
=47	=47	=47	=47	=47	=47	=47
1r	.	.	.	.	.	.
.	.	4A-M	A-:maj (C A- E-)	.	.	synthesizer
.	.	2D-MM	D-:maj7 (D- F A- C)	.	.	synthesizer
=47	=47	=47	=47	=47	=47	=47
.	.	2G-M	G-:maj (G- B- D-)	newline	172.241	synthesizer
=48	=48	=48	=48	=48	=48	=48
1r	.	.	.	.	.	.
.	.	2FM	F:maj (F A C)	.	.	synthesizer
=48	=48	=48	=48	=48	=48	=48
.	.	1B-M	B-:maj (B- D F)	.	.	synthesizer
=49	=49	=49	=49	=49	=49	=49
8.r	.	.	.	.	.	.
16D-	If	.	.	.	.	.
16B-	you	.	.	.	.	.
8d-	should	.	.	.	.	.
[16d-	fear	.	.	.	.	.
16d-]	_	.	.	.	.	.
4r	.	.	.	.	.	.
8r	.	.	.	.	.	.
=49	=49	=49	=49	=49	=49	=49
*	*	*>A_verse	*>A_verse	*>A_verse	*>A_verse	*>A_verse
8B-	that	2G-M	G-:maj (G- B- D-)	newline	179.716	voice
=50	=50	=50	=50	=50	=50	=50
8e-q	_	.	.	.	.	.
8f	I	.	.	.	.	.
16e-	don-	.	.	.	.	.
16d-	-tr-	.	.	.	.	.
16e-	-real-	.	.	.	.	.
16d-	-ly	.	.	.	.	.
16d-q	_	.	.	.	.	.
16e-	care,	2FM	F:maj (F A C)	.	.	voice
[16d-	_	.	.	.	.	.
2d-]	_	.	.	.	.	.
=50	=50	=50	=50	=50	=50	=50
.	.	4B-m	B-:min (B- D- F)	.	.	voice
=51	=51	=51	=51	=51	=51	=51
8.r	_	.	.	.	.	.
.	.	4A-M	A-:maj (C A- E-)	.	.	voice
16D-	and	.	.	.	.	.
16d-	that	.	.	.	.	.
8d-	you're	.	.	.	.	.
.	.	4A-Mm	A-:7 (D- A- C E- G-)	.	.	voice
[16c	star	.	.	.	.	.
16c]	_	.	.	.	.	.
8c	ting	.	.	.	.	.
.	.	4D-MM	D-:maj7 (D- F A- C)	.	.	voice
[16B-	to	.	.	.	.	.
16B-]	_	.	.	.	.	.
8B-	lose	.	.	.	.	.
=51	=51	=51	=51	=51	=51	=51
.	.	2G-M	G-:maj (G- B- D-)	newline	187.155	voice
16E-q	_	.	.	.	.	.
[16F	ground	.	.	.	.	.
=52	=52	=52	=52	=52	=52	=52
2F]	_	.	.	.	.	.
.	.	2FM	F:maj (F A C)	.	.	voice
2r	...	.	.	.	.	.
=52	=52	=52	=52	=52	=52	=52
.	.	4B-m	B-:min (B- D- F)	.	.	voice
=53	=53	=53	=53	=53	=53	=53
8.r	.	.	.	.	.	.
.	.	2.A-M	A-:maj (C A- E-)	.	.	voice
16D-	just	.	.	.	.	.
16B-	let	.	.	.	.	.
16d-	me	.	.	.	.	.
16d-	re-	.	.	.	.	.
16B-	-as-	.	.	.	.	.
8e-	-sure	.	.	.	.	.
8d-q	_	.	.	.	.	.
[8e-	you,	.	.	.	.	.
8e-]	_	.	.	.	.	.
=53	=53	=53	=53	=53	=53	=53
16r	_	2G-M	G-:maj (G- B- D-)	newline	194.675	voice
16d-	that	.	.	.	.	.
=54	=54	=54	=54	=54	=54	=54
8f	you	.	.	.	.	.
8f	can	.	.	.	.	.
8g-q	_	.	.	.	.	.
8a-	count	.	.	.	.	.
16a-	on	2FM	F:maj (F A C)	.	.	voice
16e-q	_	.	.	.	.	.
16f	me!	.	.	.	.	.
32e-	_	.	.	.	.	.
[16.d-	_	.	.	.	.	.
8d-_	_	.	.	.	.	.
4d-]	_	.	.	.	.	.
=54	=54	=54	=54	=54	=54	=54
.	.	4B-m	B-:min (B- D- F)	.	.	voice
=55	=55	=55	=55	=55	=55	=55
8.r	_	.	.	.	.	.
.	.	4A-M	A-:maj (C A- E-)	.	.	voice
16D-	And	.	.	.	.	.
16d-	I	.	.	.	.	.
8d-	will	.	.	.	.	.
.	.	2D-MM	D-:maj7 (D- F A- C)	.	.	voice
32c	al	.	.	.	.	.
32d-	_	.	.	.	.	.
16d-	_	.	.	.	.	.
8.F	ways	.	.	.	.	.
16r	.	.	.	.	.	.
16d-	be	.	.	.	.	.
=55	=55	=55	=55	=55	=55	=55
16c	a	2G-M	G-:maj (G- B- D-)	newline	202.174	voice
16B-q	_	.	.	.	.	.
[16c	round	.	.	.	.	.
=56	=56	=56	=56	=56	=56	=56
16c]	_	.	.	.	.	.
32d-	_	.	.	.	.	.
32c	_	.	.	.	.	.
[8B-	_	.	.	.	.	.
4B-_	_	.	.	.	.	.
.	.	2FM	F:maj (F A C)	.	.	voice
8B-]	_	.	.	.	.	.
8fq	_	.	.	.	.	.
8g-	Be	.	.	.	.	.
8e-q	_	.	.	.	.	.
8f	cause	.	.	.	.	.
=56	=56	=56	=56	=56	=56	=56
16e-	I	1B-M	B-:maj (B- D F)	.	.	voice
16d-	_	.	.	.	.	.
=57	=57	=57	=57	=57	=57	=57
4.d-	love	.	.	.	.	.
16e-	_	.	.	.	.	.
16d-q	_	.	.	.	.	.
[16e-	you,	.	.	.	.	.
4e-_	_	.	.	.	.	.
16e-]	_	.	.	.	.	.
8r	_	.	.	.	.	.
=57	=57	=57	=57	=57	=57	=57
*	*	*>B_chorus	*>B_chorus	*>B_chorus	*>B_chorus	*>B_chorus
.	.	2E-mm	E-:min7 (E- G- B- D-)	newline	209.615	voice
16G-	my	.	.	.	.	.
=58	=58	=58	=58	=58	=58	=58
8g-	heart's	.	.	.	.	.
16g-	an	.	.	.	.	.
16g-q	_	.	.	.	.	.
[16a-	o	.	.	.	.	.
8a-]	_	.	.	.	.	.
16a-	pen	2A-M	A-:maj (A- C E-)	.	.	voice
16e-q	_	.	.	.	.	.
16f	door	.	.	.	.	.
16e-	_	.	.	.	.	.
[16d-	_	.	.	.	.	.
4d-]	_	.	.	.	.	.
=58	=58	=58	=58	=58	=58	=58
8r	.	1D-M	D-:maj (D- F A-)	.	.	voice
=59	=59	=59	=59	=59	=59	=59
8r	.	.	.	.	.	.
8cq	_	.	.	.	.	.
8d-	Girl,	.	.	.	.	.
8cq	_	.	.	.	.	.
8d-	won't	.	.	.	.	.
16d-	you	.	.	.	.	.
16B-q	_	.	.	.	.	.
[16c	please	.	.	.	.	.
4c]	_	.	.	.	.	.
12r	.	.	.	.	.	.
8d-q	_	.	.	.	.	.
12e-	come	.	.	.	.	.
=59	=59	=59	=59	=59	=59	=59
.	.	2E-mm	E-:min7 (E- G- B- D-)	.	.	voice
8e-q	_	.	.	.	.	.
[12f	on	.	.	.	.	.
=60	=60	=60	=60	=60	=60	=60
8d-q	_	.	.	.	.	.
16e-	_	.	.	.	.	.
32e-	in?	.	.	.	.	.
[16.d-	_	.	.	.	.	.
16d-_	_	.	.	.	.	.
4d-]	_	.	.	.	.	.
.	.	2A-M	A-:maj (A- C E-)	.	.	voice
8r	_	.	.	.	.	.
8e-q	_	.	.	.	.	.
8f	Be	.	.	.	.	.
8e-q	_	.	.	.	.	.
8f	cause	.	.	.	.	.
=60	=60	=60	=60	=60	=60	=60
16e-	I	2B-m	B-:min (B- D- F)	.	.	voice
16d-	_	.	.	.	.	.
=61	=61	=61	=61	=61	=61	=61
4.d-	love	.	.	.	.	.
16e-	_	2A-M	A-:maj (A- C E-)	.	.	voice
16d-q	_	.	.	.	.	.
[16e-	you	.	.	.	.	.
4e-]	_	.	.	.	.	.
8.r	.	.	.	.	.	.
=61	=61	=61	=61	=61	=61	=61
.	.	2E-mm	E-:min7 (E- G- B- D-)	newline	224.537	voice
16G-	I'll	.	.	.	.	.
=62	=62	=62	=62	=62	=62	=62
8f	be	.	.	.	.	.
16f	right	.	.	.	.	.
16g-q	_	.	.	.	.	.
[16a-	by	.	.	.	.	.
8a-]	_	.	.	.	.	.
16a-	your	2A-M	A-:maj (A- C E-)	.	.	voice
16e-q	_	.	.	.	.	.
16f	side	.	.	.	.	.
32e-	_	.	.	.	.	.
[16.d-	_	.	.	.	.	.
4d-]	_	.	.	.	.	.
=62	=62	=62	=62	=62	=62	=62
8r	.	1D-M	D-:maj (D- F A-)	.	.	voice
=63	=63	=63	=63	=63	=63	=63
8.r	.	.	.	.	.	.
16E-	To	.	.	.	.	.
16d-	be	.	.	.	.	.
16d-	_	.	.	.	.	.
32c	your	.	.	.	.	.
32d-	_	.	.	.	.	.
[16c	light,	.	.	.	.	.
8c]	_	.	.	.	.	.
16F	to	.	.	.	.	.
32d-	be	.	.	.	.	.
[32c	_	.	.	.	.	.
8c]	_	.	.	.	.	.
=63	=63	=63	=63	=63	=63	=63
16c	your	2E-mm	E-:min7 (E- G- B- D-)	.	.	voice
16B-q	_	.	.	.	.	.
[16c	guide	.	.	.	.	.
=64	=64	=64	=64	=64	=64	=64
16c]	_	.	.	.	.	.
32d-	_	.	.	.	.	.
32c	_	.	.	.	.	.
[8B-	_	.	.	.	.	.
4B-_	_	.	.	.	.	.
.	.	2A-Mm	A-:7 (A- C E- G-)	.	.	voice
4.B-]	_	.	.	.	.	.
=64	=64	=64	=64	=64	=64	=64
8r	.	1B-M	B-:maj (B- D F)	.	.	voice
=65	=65	=65	=65	=65	=65	=65
1r	.	.	.	.	.	.
=65	=65	=65	=65	=65	=65	=65
*	*	*>B2_fadeout	*>B2_fadeout	*>B2_fadeout	*>B2_fadeout	*>B2_fadeout
.	.	2E-mm	E-:min7 (E- G- B- D-)	newline	239.539	piano
=66	=66	=66	=66	=66	=66	=66
1r	.	.	.	.	.	.
.	.	2A-M	A-:maj (A- C E-)	.	.	piano
=66	=66	=66	=66	=66	=66	=66
.	.	1D-M	D-:maj (D- F A-)	.	.	piano
=67	=67	=67	=67	=67	=67	=67
1r	.	.	.	.	.	.
=67	=67	=67	=67	=67	=67	=67
.	.	2E-mm	E-:min7 (E- G- B- D-)	.	.	piano
=68	=68	=68	=68	=68	=68	=68
1r	.	.	.	.	.	.
.	.	2A-M	A-:maj (A- C E-)	.	.	piano
=68	=68	=68	=68	=68	=68	=68
.	.	2B-m	B-:min (B- D- F)	.	.	piano
=69	=69	=69	=69	=69	=69	=69
1r	.	.	.	.	.	.
.	.	2A-M	A-:maj (A- C E-)	.	.	piano
=69	=69	=69	=69	=69	=69	=69
.	.	1E-m	E-:min (E- G- B-)	.	.	piano
=70	=70	=70	=70	=70	=70	=70
1r	.	.	.	.	.	.
.	.	1r;	r	.	258.531	r
*-	*-	*	*
.	.	.	.	.
1r;	r	.	262.269	r
*-	*-	*-	*-	*-
!!!BillboardChartDate: 1991/02/16, 1991/02/23
!!!BillboardPeak: 1, 1
!!!BillboardWeeksOnChart: 23, 23
!!!COC: Stevie B
!!!ENC: Nathaniel Condit-Schultz
!!!EST: Awating manual error checking and editing.
!!!OTL: Because I Love You (The Postman Song)
!!!RDF**chordsym: original McGill chord annotation + (implied pitch class set, with bass pitch in first position)
!!!RDF**harmony: **recip + pitch class of root + harmonic quality
!!!RDF**leadinstrument: original McGill primary instrumentation annotation
!!!RDF**phrase: newline = linebreak in original McGill transcription
!!!RDF**timestamp: McGill audio timestamp in seconds
!!!RDT: 2017/01/12/
!!!SampleActualRank: 49, 65
!!!SampleID#: 242, 782
!!!SampleTargetRank: 50, 63
